!!!OTL: Winterrosen Es wollt' ein Maedchen Wasser hol'n
!!!ARE: Europa, Mitteleuropa, Deutschland (), Thueringen
!!!YOR: 7, S. 61
!!    ????
!!!SCT: Q0145H
!!!YEM: Copyright 1995, estate of Helmut Schaffrath.
**kern
*ICvox
*Ivox
*M3/4
*k[f#]
*G:
{8d
=1
8g
8b
4dd
8b
8g
=2
8f#
8a
4.a}
{8d
=3
8g
8b
4dd
8b
8g
=4
4b
4a
8r}
{8dd
=5
8dd
8ff#
8aa
8ff#
8dd
8cc
=6
8b
8dd
4.gg}
{8b
=7
8a
8cc
4ee
8dd
8a
=8
4cc
4b
8r}
==
!!!AGN: Ballade, Verfuehrung, verlorene Ehre
!! Pause am Ende der 2. Zeile ergaenzt.
!!!ONB: ESAC (Essen Associative Code) Database: BALLADE
!!!AMT: simple triple
!!!AIN: vox
!!!EED: Helmut Schaffrath
!!!EEV: 1.0
*-
